;Generated with Cura_SteamEngine 13.12
M140 S70.000000
M109 T0 S210.000000
T0
M190 S70.000000
;Sliced at: Tue 28-01-2014 23:37:26
;Basic settings: Layer height: 0.2 Walls: 1 Fill: 30
;Print time: #P_TIME#
;Filament used: #F_AMNT#m #F_WGHT#g
;Filament cost: #F_COST#
;M190 S70 ;Uncomment to add your own bed temperature line
;M109 S210 ;Uncomment to add your own temperature line
G21        ;metric values
G90        ;absolute positioning
M107       ;start with the fan off
G28 X0 Y0 ;Home
G92 X-7 Y-6 ;Endstop compensation
M117 Printing...

;Layer count: 37
;LAYER:0
M107
G0 F3600 X41.04 Y44.81 Z0.25
;TYPE:SKIRT
G1 F2400 E0.00000
G1 F1200 X41.64 Y44.38 E0.01417
G1 X43.31 Y43.52 E0.04963
G1 X44.02 Y43.29 E0.06375
G1 X45.69 Y43.03 E0.09565
G1 X46.06 Y43.00 E0.10275
G1 X108.04 Y43.00 E1.27558
G1 X108.41 Y43.03 E1.28266
G1 X110.08 Y43.29 E1.31460
G1 X110.79 Y43.52 E1.32871
G1 X112.45 Y44.38 E1.36416
G1 X113.06 Y44.81 E1.37830
G1 X114.39 Y46.14 E1.41379
G1 X114.82 Y46.74 E1.42794
G1 X115.67 Y48.41 E1.46338
G1 X115.91 Y49.12 E1.47749
G1 X116.17 Y50.79 E1.50944
G1 X116.20 Y51.16 E1.51652
G1 X116.20 Y68.95 E1.85317
G1 X117.44 Y67.71 E1.88635
G1 X118.05 Y67.28 E1.90047
G1 X119.71 Y66.42 E1.93592
G1 X120.42 Y66.19 E1.95005
G1 X122.09 Y65.93 E1.98198
G1 X122.46 Y65.90 E1.98903
G1 X156.64 Y65.90 E2.63578
G1 X157.01 Y65.93 E2.64288
G1 X158.68 Y66.19 E2.67480
G1 X159.38 Y66.42 E2.68890
G1 X161.05 Y67.28 E2.72433
G1 X161.66 Y67.71 E2.73845
G1 X162.98 Y69.04 E2.77393
G1 X163.42 Y69.64 E2.78811
G1 X164.28 Y71.31 E2.82359
G1 X164.51 Y72.03 E2.83774
G1 X164.77 Y73.69 E2.86964
G1 X164.80 Y74.06 E2.87671
G1 X164.80 Y131.24 E3.95868
G1 X164.77 Y131.61 E3.96574
G1 X164.51 Y133.27 E3.99764
G1 X164.28 Y133.98 E4.01179
G1 X163.42 Y135.66 E4.04727
G1 X162.98 Y136.26 E4.06145
G1 X161.66 Y137.59 E4.09694
G1 X161.05 Y138.02 E4.11105
G1 X159.38 Y138.87 E4.14648
G1 X158.68 Y139.10 E4.16058
G1 X157.01 Y139.37 E4.19250
G1 X156.64 Y139.40 E4.19960
G1 X122.46 Y139.40 E4.84637
G1 X122.09 Y139.37 E4.85347
G1 X120.42 Y139.10 E4.88539
G1 X119.71 Y138.87 E4.89948
G1 X118.90 Y138.46 E4.91677
G1 X118.90 Y148.84 E5.11315
G1 X118.87 Y149.21 E5.12022
G1 X118.61 Y150.87 E5.15214
G1 X118.37 Y151.58 E5.16627
G1 X117.52 Y153.25 E5.20172
G1 X117.09 Y153.86 E5.21584
G1 X115.76 Y155.18 E5.25133
G1 X115.16 Y155.62 E5.26550
G1 X113.48 Y156.47 E5.30098
G1 X112.78 Y156.71 E5.31509
G1 X111.11 Y156.97 E5.34701
G1 X110.74 Y157.00 E5.35409
G1 X43.36 Y157.00 E6.62911
G1 X42.99 Y156.97 E6.63621
G1 X41.32 Y156.71 E6.66812
G1 X40.61 Y156.47 E6.68223
G1 X38.94 Y155.62 E6.71769
G1 X38.34 Y155.18 E6.73187
G1 X37.01 Y153.86 E6.76735
G1 X36.58 Y153.25 E6.78147
G1 X35.73 Y151.58 E6.81692
G1 X35.49 Y150.87 E6.83105
G1 X35.23 Y149.21 E6.86298
G1 X35.20 Y148.84 E6.87004
G1 X35.20 Y104.46 E7.70977
G1 X35.23 Y104.09 E7.71681
G1 X35.49 Y102.43 E7.74875
G1 X35.73 Y101.71 E7.76291
G1 X36.58 Y100.05 E7.79835
G1 X37.01 Y99.44 E7.81247
G1 X38.34 Y98.11 E7.84796
G1 X38.94 Y97.67 E7.86213
G1 X40.62 Y96.82 E7.89762
G1 X41.23 Y96.62 E7.90983
G1 X41.04 Y96.49 E7.91428
G1 X39.71 Y95.16 E7.94974
G1 X39.27 Y94.56 E7.96391
G1 X38.42 Y92.89 E7.99936
G1 X38.19 Y92.18 E8.01348
G1 X37.93 Y90.51 E8.04540
G1 X37.90 Y90.14 E8.05248
G1 X37.90 Y51.16 E8.79004
G1 X37.93 Y50.79 E8.79712
G1 X38.19 Y49.12 E8.82907
G1 X38.42 Y48.41 E8.84318
G1 X39.27 Y46.75 E8.87861
G1 X39.71 Y46.14 E8.89273
G1 X41.04 Y44.81 E8.92822
G0 F3600 X41.36 Y45.20
G1 F1200 X41.91 Y44.80 E8.94091
G1 X43.51 Y43.99 E8.97489
G1 X44.14 Y43.78 E8.98750
G1 X45.75 Y43.53 E9.01829
G1 X46.08 Y43.50 E9.02465
G1 X108.02 Y43.50 E10.19672
G1 X108.35 Y43.53 E10.20306
G1 X109.96 Y43.78 E10.23387
G1 X110.59 Y43.99 E10.24651
G1 X112.19 Y44.80 E10.28046
G1 X112.73 Y45.20 E10.29313
G1 X114.00 Y46.47 E10.32712
G1 X114.40 Y47.01 E10.33978
G1 X115.21 Y48.61 E10.37374
G1 X115.42 Y49.24 E10.38637
G1 X115.67 Y50.85 E10.41719
G1 X115.70 Y51.18 E10.42353
G1 X115.70 Y70.69 E10.79275
G1 X116.10 Y69.91 E10.80946
G1 X116.50 Y69.36 E10.82215
G1 X117.77 Y68.09 E10.85614
G1 X118.31 Y67.70 E10.86878
G1 X119.91 Y66.89 E10.90274
G1 X120.54 Y66.68 E10.91539
G1 X122.15 Y66.43 E10.94619
G1 X122.48 Y66.40 E10.95251
G1 X156.62 Y66.40 E11.59849
G1 X156.95 Y66.43 E11.60485
G1 X158.56 Y66.68 E11.63565
G1 X159.19 Y66.89 E11.64826
G1 X160.79 Y67.70 E11.68220
G1 X161.33 Y68.09 E11.69484
G1 X162.60 Y69.36 E11.72883
G1 X163.00 Y69.91 E11.74152
G1 X163.81 Y71.51 E11.77552
G1 X164.02 Y72.14 E11.78817
G1 X164.27 Y73.75 E11.81897
G1 X164.30 Y74.08 E11.82529
G1 X164.30 Y131.22 E12.90650
G1 X164.27 Y131.55 E12.91282
G1 X164.02 Y133.16 E12.94361
G1 X163.81 Y133.79 E12.95626
G1 X163.00 Y135.39 E12.99026
G1 X162.60 Y135.94 E13.00295
G1 X161.33 Y137.20 E13.03694
G1 X160.79 Y137.60 E13.04958
G1 X159.19 Y138.41 E13.08352
G1 X158.56 Y138.62 E13.09614
G1 X156.95 Y138.87 E13.12693
G1 X156.62 Y138.90 E13.13329
G1 X122.48 Y138.90 E13.77930
G1 X122.15 Y138.87 E13.78566
G1 X120.54 Y138.62 E13.81645
G1 X119.91 Y138.41 E13.82907
G1 X118.40 Y137.64 E13.86105
G1 X118.40 Y148.82 E14.07248
G1 X118.37 Y149.15 E14.07880
G1 X118.12 Y150.76 E14.10959
G1 X117.91 Y151.39 E14.12225
G1 X117.10 Y152.99 E14.15620
G1 X116.70 Y153.53 E14.16884
G1 X115.44 Y154.80 E14.20283
G1 X114.89 Y155.20 E14.21552
G1 X113.29 Y156.01 E14.24952
G1 X112.66 Y156.22 E14.26213
G1 X111.05 Y156.47 E14.29295
G1 X110.72 Y156.50 E14.29929
G1 X43.38 Y156.50 E15.57355
G1 X43.05 Y156.47 E15.57991
G1 X41.44 Y156.22 E15.61070
G1 X40.81 Y156.01 E15.62331
G1 X39.21 Y155.20 E15.65729
G1 X38.66 Y154.80 E15.66999
G1 X37.40 Y153.53 E15.70398
G1 X37.00 Y152.99 E15.71661
G1 X36.19 Y151.39 E15.75057
G1 X35.98 Y150.76 E15.76323
G1 X35.73 Y149.15 E15.79402
G1 X35.70 Y148.82 E15.80034
G1 X35.70 Y104.48 E16.63932
G1 X35.73 Y104.15 E16.64564
G1 X35.98 Y102.54 E16.67645
G1 X36.19 Y101.91 E16.68911
G1 X37.00 Y100.31 E16.72306
G1 X37.40 Y99.77 E16.73570
G1 X38.66 Y98.50 E16.76969
G1 X39.21 Y98.10 E16.78238
G1 X40.81 Y97.29 E16.81638
G1 X41.44 Y97.08 E16.82903
G1 X42.67 Y96.89 E16.85248
G1 X41.91 Y96.50 E16.86862
G1 X41.37 Y96.10 E16.88132
G1 X40.10 Y94.83 E16.91528
G1 X39.70 Y94.29 E16.92797
G1 X38.89 Y92.69 E16.96194
G1 X38.68 Y92.06 E16.97455
G1 X38.43 Y90.45 E17.00537
G1 X38.40 Y90.12 E17.01171
G1 X38.40 Y51.18 E17.74851
G1 X38.43 Y50.85 E17.75485
G1 X38.68 Y49.24 E17.78567
G1 X38.89 Y48.61 E17.79830
G1 X39.70 Y47.01 E17.83224
G1 X40.09 Y46.47 E17.84488
G1 X41.36 Y45.20 E17.87887
G0 F3600 X41.69 Y45.58
G1 F1200 X42.17 Y45.23 E17.89007
G1 X43.70 Y44.45 E17.92256
G1 X44.26 Y44.27 E17.93368
G1 X45.81 Y44.02 E17.96337
G1 X46.10 Y44.00 E17.96895
G1 X108.00 Y44.00 E19.14028
G1 X108.29 Y44.02 E19.14588
G1 X109.84 Y44.27 E19.17558
G1 X110.40 Y44.45 E19.18673
G1 X111.93 Y45.23 E19.21919
G1 X112.41 Y45.58 E19.23037
G1 X113.62 Y46.79 E19.26286
G1 X113.97 Y47.27 E19.27404
G1 X114.75 Y48.80 E19.30650
G1 X114.93 Y49.36 E19.31765
G1 X115.18 Y50.91 E19.34735
G1 X115.20 Y51.20 E19.35295
G1 X115.20 Y90.10 E20.08900
G1 X115.18 Y90.39 E20.09460
G1 X114.93 Y91.94 E20.12431
G1 X114.75 Y92.50 E20.13542
G1 X113.97 Y94.03 E20.16792
G1 X113.62 Y94.51 E20.17912
G1 X112.41 Y95.72 E20.21162
G1 X111.93 Y96.07 E20.22278
G1 X110.40 Y96.85 E20.25523
G1 X109.84 Y97.03 E20.26637
G1 X108.29 Y97.28 E20.29607
G1 X108.01 Y97.30 E20.30145
G1 X110.70 Y97.30 E20.35231
G1 X110.99 Y97.32 E20.35788
G1 X112.54 Y97.57 E20.38757
G1 X113.10 Y97.75 E20.39873
G1 X114.63 Y98.53 E20.43123
G1 X115.11 Y98.88 E20.44243
G1 X115.30 Y99.07 E20.44752
G1 X115.30 Y74.10 E20.91998
G1 X115.32 Y73.81 E20.92557
G1 X115.57 Y72.26 E20.95525
G1 X115.75 Y71.70 E20.96637
G1 X116.53 Y70.17 E20.99886
G1 X116.88 Y69.69 E21.01007
G1 X118.09 Y68.48 E21.04257
G1 X118.57 Y68.13 E21.05372
G1 X120.10 Y67.35 E21.08620
G1 X120.66 Y67.17 E21.09736
G1 X122.21 Y66.92 E21.12704
G1 X122.50 Y66.90 E21.13260
G1 X156.60 Y66.90 E21.77787
G1 X156.89 Y66.92 E21.78345
G1 X158.44 Y67.17 E21.81313
G1 X159.00 Y67.35 E21.82428
G1 X160.53 Y68.13 E21.85673
G1 X161.01 Y68.48 E21.86788
G1 X162.22 Y69.69 E21.90038
G1 X162.57 Y70.17 E21.91159
G1 X163.35 Y71.70 E21.94408
G1 X163.53 Y72.26 E21.95524
G1 X163.78 Y73.81 E21.98492
G1 X163.80 Y74.10 E21.99048
G1 X163.80 Y131.20 E23.07098
G1 X163.78 Y131.49 E23.07654
G1 X163.53 Y133.04 E23.10622
G1 X163.35 Y133.60 E23.11738
G1 X162.57 Y135.13 E23.14987
G1 X162.22 Y135.61 E23.16108
G1 X161.01 Y136.82 E23.19358
G1 X160.53 Y137.17 E23.20473
G1 X159.00 Y137.95 E23.23718
G1 X158.44 Y138.13 E23.24833
G1 X156.89 Y138.38 E23.27801
G1 X156.60 Y138.40 E23.28359
G1 X122.50 Y138.40 E23.92888
G1 X122.21 Y138.38 E23.93446
G1 X120.66 Y138.13 E23.96415
G1 X120.10 Y137.95 E23.97529
G1 X118.57 Y137.17 E24.00774
G1 X118.09 Y136.82 E24.01889
G1 X117.90 Y136.63 E24.02406
G1 X117.90 Y148.80 E24.25431
G1 X117.88 Y149.09 E24.25987
G1 X117.63 Y150.64 E24.28955
G1 X117.45 Y151.20 E24.30071
G1 X116.67 Y152.73 E24.33319
G1 X116.32 Y153.21 E24.34434
G1 X115.11 Y154.42 E24.37684
G1 X114.63 Y154.77 E24.38805
G1 X113.10 Y155.55 E24.42054
G1 X112.54 Y155.73 E24.43166
G1 X110.99 Y155.98 E24.46136
G1 X110.70 Y156.00 E24.46696
G1 X43.40 Y156.00 E25.74049
G1 X43.11 Y155.98 E25.74607
G1 X41.56 Y155.73 E25.77575
G1 X41.00 Y155.55 E25.78687
G1 X39.47 Y154.77 E25.81937
G1 X38.99 Y154.42 E25.83057
G1 X37.78 Y153.21 E25.86307
G1 X37.43 Y152.73 E25.87423
G1 X36.65 Y151.20 E25.90670
G1 X36.47 Y150.64 E25.91786
G1 X36.22 Y149.09 E25.94754
G1 X36.20 Y148.80 E25.95310
G1 X36.20 Y104.50 E26.79136
G1 X36.22 Y104.21 E26.79693
G1 X36.47 Y102.66 E26.82662
G1 X36.65 Y102.10 E26.83778
G1 X37.43 Y100.57 E26.87026
G1 X37.78 Y100.09 E26.88141
G1 X38.99 Y98.88 E26.91391
G1 X39.47 Y98.53 E26.92512
G1 X41.00 Y97.75 E26.95761
G1 X41.56 Y97.57 E26.96877
G1 X43.11 Y97.32 E26.99845
G1 X43.40 Y97.30 E27.00401
G1 X46.09 Y97.30 E27.05486
G1 X45.81 Y97.28 E27.06022
G1 X44.26 Y97.03 E27.08990
G1 X43.70 Y96.85 E27.10102
G1 X42.17 Y96.07 E27.13351
G1 X41.69 Y95.72 E27.14471
G1 X40.48 Y94.51 E27.17717
G1 X40.13 Y94.03 E27.18836
G1 X39.35 Y92.50 E27.22086
G1 X39.17 Y91.94 E27.23198
G1 X38.92 Y90.39 E27.26168
G1 X38.90 Y90.10 E27.26728
G1 X38.90 Y51.20 E28.00333
G1 X38.92 Y50.91 E28.00893
G1 X39.17 Y49.36 E28.03863
G1 X39.35 Y48.80 E28.04977
G1 X40.13 Y47.27 E28.08222
G1 X40.48 Y46.79 E28.09337
G1 X41.69 Y45.58 E28.12588
G0 F3600 X42.02 Y45.96
G1 F1200 X42.43 Y45.66 E28.13560
G1 X43.89 Y44.91 E28.16660
G1 X44.38 Y44.76 E28.17623
G1 X45.87 Y44.52 E28.20479
G1 X46.12 Y44.50 E28.20965
G1 X107.98 Y44.50 E29.38024
G1 X108.23 Y44.52 E29.38508
G1 X109.72 Y44.76 E29.41367
G1 X110.21 Y44.91 E29.42332
G1 X111.67 Y45.66 E29.45429
G1 X112.08 Y45.96 E29.46399
G1 X113.24 Y47.12 E29.49498
G1 X113.54 Y47.53 E29.50469
G1 X114.28 Y48.99 E29.53565
G1 X114.44 Y49.48 E29.54531
G1 X114.68 Y50.97 E29.57390
G1 X114.70 Y51.22 E29.57874
G1 X114.70 Y90.08 E30.31407
G1 X114.68 Y90.33 E30.31891
G1 X114.44 Y91.82 E30.34748
G1 X114.28 Y92.31 E30.35714
G1 X113.54 Y93.77 E30.38814
G1 X113.24 Y94.19 E30.39786
G1 X112.08 Y95.34 E30.42886
G1 X111.67 Y95.64 E30.43854
G1 X110.21 Y96.39 E30.46950
G1 X109.72 Y96.54 E30.47915
G1 X108.23 Y96.78 E30.50774
G1 X107.98 Y96.80 E30.51258
G1 X46.12 Y96.80 E31.68318
G1 X45.87 Y96.78 E31.68804
G1 X44.38 Y96.54 E31.71659
G1 X43.89 Y96.39 E31.72623
G1 X42.43 Y95.64 E31.75723
G1 X42.02 Y95.34 E31.76690
G1 X40.86 Y94.18 E31.79792
G1 X40.56 Y93.77 E31.80760
G1 X39.81 Y92.31 E31.83860
G1 X39.66 Y91.82 E31.84825
G1 X39.42 Y90.33 E31.87683
G1 X39.40 Y90.08 E31.88166
G1 X39.40 Y51.22 E32.61699
G1 X39.42 Y50.97 E32.62183
G1 X39.66 Y49.48 E32.65043
G1 X39.81 Y48.99 E32.66008
G1 X40.56 Y47.53 E32.69104
G1 X40.86 Y47.12 E32.70071
G1 X42.02 Y45.96 E32.73172
G0 F3600 X42.34 Y46.34
G1 F1200 X42.69 Y46.09 E32.73996
G1 X44.08 Y45.38 E32.76947
G1 X44.49 Y45.24 E32.77763
G1 X45.92 Y45.02 E32.80507
G1 X46.14 Y45.00 E32.80917
G1 X107.96 Y45.00 E33.97901
G1 X108.17 Y45.02 E33.98311
G1 X109.61 Y45.24 E34.01059
G1 X110.02 Y45.38 E34.01875
G1 X111.41 Y46.09 E34.04824
G1 X111.76 Y46.34 E34.05642
G1 X112.86 Y47.44 E34.08597
G1 X113.11 Y47.79 E34.09416
G1 X113.82 Y49.18 E34.12365
G1 X113.96 Y49.59 E34.13181
G1 X114.18 Y51.03 E34.15929
G1 X114.20 Y51.24 E34.16339
G1 X114.20 Y90.06 E34.89796
G1 X114.18 Y90.27 E34.90206
G1 X113.96 Y91.71 E34.92954
G1 X113.82 Y92.12 E34.93768
G1 X113.11 Y93.51 E34.96720
G1 X112.86 Y93.86 E34.97543
G1 X111.76 Y94.96 E35.00494
G1 X111.41 Y95.21 E35.01311
G1 X110.02 Y95.92 E35.04260
G1 X109.61 Y96.06 E35.05076
G1 X108.17 Y96.28 E35.07824
G1 X107.96 Y96.30 E35.08234
G1 X46.14 Y96.30 E36.25218
G1 X45.92 Y96.28 E36.25628
G1 X44.49 Y96.06 E36.28372
G1 X44.08 Y95.92 E36.29188
G1 X42.69 Y95.22 E36.32139
G1 X42.34 Y94.96 E36.32959
G1 X41.24 Y93.86 E36.35911
G1 X40.98 Y93.51 E36.36731
G1 X40.28 Y92.12 E36.39682
G1 X40.14 Y91.71 E36.40497
G1 X39.92 Y90.27 E36.43245
G1 X39.90 Y90.06 E36.43655
G1 X39.90 Y51.24 E37.17112
G1 X39.92 Y51.03 E37.17522
G1 X40.14 Y49.59 E37.20270
G1 X40.28 Y49.18 E37.21086
G1 X40.99 Y47.79 E37.24035
G1 X41.24 Y47.44 E37.24852
G1 X42.34 Y46.34 E37.27803
G0 F3600 X42.67 Y46.72
G1 F1200 X42.95 Y46.51 E37.28475
G1 X44.27 Y45.84 E37.31278
G1 X44.61 Y45.73 E37.31944
G1 X45.98 Y45.51 E37.34577
G1 X46.16 Y45.50 E37.34915
G1 X107.94 Y45.50 E38.51823
G1 X108.11 Y45.51 E38.52159
G1 X109.49 Y45.73 E38.54794
G1 X109.83 Y45.84 E38.55462
G1 X111.14 Y46.51 E38.58262
G1 X111.43 Y46.72 E38.58933
G1 X112.48 Y47.77 E38.61737
G1 X112.69 Y48.06 E38.62408
G1 X113.36 Y49.37 E38.65208
G1 X113.47 Y49.71 E38.65876
G1 X113.69 Y51.09 E38.68511
G1 X113.70 Y51.26 E38.68847
G1 X113.70 Y90.04 E39.42229
G1 X113.69 Y90.22 E39.42565
G1 X113.47 Y91.59 E39.45200
G1 X113.36 Y91.93 E39.45868
G1 X112.69 Y93.25 E39.48671
G1 X112.48 Y93.53 E39.49343
G1 X111.43 Y94.58 E39.52145
G1 X111.14 Y94.79 E39.52814
G1 X109.83 Y95.46 E39.55614
G1 X109.49 Y95.57 E39.56283
G1 X108.11 Y95.79 E39.58917
G1 X107.94 Y95.80 E39.59253
G1 X46.16 Y95.80 E40.76161
G1 X45.98 Y95.79 E40.76499
G1 X44.61 Y95.57 E40.79132
G1 X44.27 Y95.46 E40.79799
G1 X42.95 Y94.79 E40.82602
G1 X42.67 Y94.58 E40.83271
G1 X41.62 Y93.53 E40.86073
G1 X41.41 Y93.25 E40.86742
G1 X40.74 Y91.93 E40.89546
G1 X40.63 Y91.59 E40.90214
G1 X40.41 Y90.22 E40.92849
G1 X40.40 Y90.04 E40.93185
G1 X40.40 Y51.26 E41.66566
G1 X40.41 Y51.09 E41.66902
G1 X40.63 Y49.71 E41.69537
G1 X40.74 Y49.37 E41.70205
G1 X41.41 Y48.06 E41.73005
G1 X41.62 Y47.77 E41.73674
G1 X42.67 Y46.72 E41.76477
G0 F3600 X42.99 Y47.10
G1 F1200 X43.22 Y46.94 E41.76999
G1 X44.47 Y46.30 E41.79653
G1 X44.73 Y46.22 E41.80172
G1 X46.04 Y46.01 E41.82694
G1 X46.18 Y46.00 E41.82954
G1 X107.92 Y46.00 E42.99790
G1 X108.06 Y46.01 E43.00050
G1 X109.37 Y46.22 E43.02574
G1 X109.63 Y46.31 E43.03093
G1 X110.88 Y46.94 E43.05744
G1 X111.10 Y47.10 E43.06266
G1 X112.10 Y48.09 E43.08920
G1 X112.26 Y48.32 E43.09442
G1 X112.89 Y49.57 E43.12093
G1 X112.98 Y49.83 E43.12612
G1 X113.19 Y51.14 E43.15136
G1 X113.20 Y51.28 E43.15396
G1 X113.20 Y90.02 E43.88706
G1 X113.19 Y90.16 E43.88966
G1 X112.98 Y91.47 E43.91490
G1 X112.90 Y91.73 E43.92009
G1 X112.26 Y92.98 E43.94663
G1 X112.10 Y93.21 E43.95185
G1 X111.10 Y94.20 E43.97839
G1 X110.88 Y94.36 E43.98359
G1 X109.63 Y95.00 E44.01010
G1 X109.37 Y95.08 E44.01530
G1 X108.06 Y95.29 E44.04053
G1 X107.92 Y95.30 E44.04314
G1 X46.18 Y95.30 E45.21150
G1 X46.04 Y95.29 E45.21410
G1 X44.73 Y95.08 E45.23931
G1 X44.47 Y95.00 E45.24450
G1 X43.22 Y94.36 E45.27103
G1 X42.99 Y94.20 E45.27626
G1 X42.00 Y93.21 E45.30278
G1 X41.84 Y92.98 E45.30801
G1 X41.20 Y91.73 E45.33453
G1 X41.12 Y91.47 E45.33972
G1 X40.91 Y90.16 E45.36495
G1 X40.90 Y90.02 E45.36756
G1 X40.90 Y51.28 E46.10065
G1 X40.91 Y51.14 E46.10325
G1 X41.12 Y49.83 E46.12849
G1 X41.20 Y49.57 E46.13368
G1 X41.84 Y48.32 E46.16019
G1 X42.00 Y48.09 E46.16540
G1 X42.99 Y47.10 E46.19193
G0 F3600 X43.32 Y47.48
G1 F1200 X43.48 Y47.37 E46.19568
G1 X44.66 Y46.77 E46.22072
G1 X44.84 Y46.71 E46.22443
G1 X46.10 Y46.51 E46.24852
G1 X46.20 Y46.50 E46.25038
G1 X107.90 Y46.50 E47.41799
G1 X108.00 Y46.51 E47.41985
G1 X109.25 Y46.71 E47.44395
G1 X109.44 Y46.77 E47.44767
G1 X110.62 Y47.37 E47.47269
G1 X110.78 Y47.48 E47.47643
G1 X111.72 Y48.42 E47.50148
G1 X111.83 Y48.58 E47.50522
G1 X112.43 Y49.76 E47.53024
G1 X112.49 Y49.95 E47.53395
G1 X112.69 Y51.20 E47.55806
